X: 4120
M: C|
L: 1/8
K: G	% and Em
ud |\
f |\
gfef gfge | BGAG B2E2 |
gfef gfge | eggb agef |\
gfef gfge | d2(BG) AGEG |\
cdcA BcBA | GBdf g3 |]


